X: 3931
T:Bang Up. JMT090
M:6/8
L:1/8
S:J.Moore,Tyneside,1841.(65a)
R:Jig
O:England
A:Northumbria
Z:C.G.P
K:D
A|d2df2f|a2a fed|g2ef2d|cde ABc|d2df2f|a2a fed|!g2ef2d|cBcd2:|
|:A|F2AE2A|F2A cBA|B2dA2d|B2e cBA|!F2AE2A|F2A cBA|Bgf edc|d3d2:|
|:e|f2ed2c|B2AG2F|!G2AB2e|cBcA2e|f2ed2c|B2AG2F|GAB ABG|FGED2;|]
